static/assets/icons/checkmark--filled.svg

<svg height="24" viewBox="0 0 24 24" width="24" xmlns="http://www.w3.org/2000/svg"><path d="m2.35355339 12.6464466 2.29289322-2.2928932c.19526215-.1952622.51184463-.1952622.70710678 0l3.64644661 3.6464466 9.6464466-9.64644661c.1952622-.19526215.5118446-.19526215.7071068 0l2.2928932 2.29289322c.1952622.19526215.1952622.51184463 0 .70710678l-12.29289321 12.29289321c-.19526215.1952622-.51184463.1952622-.70710678 0l-6.29289322-6.2928932c-.19526215-.1952622-.19526215-.5118446 0-.7071068z" fill="#398fdd"/></svg>

<?xml version="1.0" encoding="UTF-8"?>
<svg width="24px" height="24px" viewBox="0 0 24 24" version="1.1" xmlns="http://www.w3.org/2000/svg" xmlns:xlink="http://www.w3.org/1999/xlink">
  <path d="M2.35355339,12.6464466 L4.64644661,10.3535534 C4.84170876,10.1582912 5.15829124,10.1582912 5.35355339,10.3535534 L9,14 L9,14 L18.6464466,4.35355339 C18.8417088,4.15829124 19.1582912,4.15829124 19.3535534,4.35355339 L21.6464466,6.64644661 C21.8417088,6.84170876 21.8417088,7.15829124 21.6464466,7.35355339 L9.35355339,19.6464466 C9.15829124,19.8417088 8.84170876,19.8417088 8.64644661,19.6464466 L2.35355339,13.3535534 C2.15829124,13.1582912 2.15829124,12.8417088 2.35355339,12.6464466 Z" fill="#398FDD" />
</svg>
